X: 4
T: Sporting Nell
R: reel
M: 4/4
L: 1/8
K: Dmix
AD (3EFG AB cd|dccA GED2|AD (3EFG AB cA|1GEED AFD2:|2GEED FAd2||dedc A2 (3Bcd|edcA G2 Ad|dedc ABcA|GEED FAd2|dedc A2 (3Bcd|edcA G2 Adde|f2 ed|cAGE EDAF||AD (3EFG AB cA|dBcA GED2|AD (3EFG AB cA|1GEED AFD2:|2GEED FAd2||


Tune 1781	Setting 24857

